X:1
T:Tyrell's Pass
L:1/8
Q:1/4=120
M:6/8
K:G
B3 edB | edB AGE | B2 e edB | edB A3 |
 B2 e edB | edB AGE | ABG AGE | DGF G2 A :|
 B2 g ged | ged BAG | GBd g2 d | edB A3 | 
 B3 ged | ged BAG | ABG AGE |"1." DGF G2 A :|"2." DGF G3 |] 


